src/resources/svg/tokens/uniswap.svg

<svg width="42" height="42" viewBox="0 0 40 42" xmlns="http://www.w3.org/2000/svg">
    <rect y="6" width="32" height="32" rx="16" fill="#FF4339"/>
    <path d="m15.53 21.336h-0.0909c-1.1512 0-2.0903 0.9694-2.0903 2.1509v2.3326l2.1509-1.6056 2.1508 1.6056v-2.3326c-0.0302-1.1815-0.9694-2.1509-2.1205-2.1509z" fill="#fff"/>
    <path d="m6.4421 13.46v17.54l5.4226-4.0594v-4.6349l-0.9997-0.7877 4.635-3.4838 4.6046 3.4838-0.9997 0.7877v4.6349l5.4529 4.0594v-17.54h-18.116z" fill="#fff"/>
    <rect x="21" y="23" width="18" height="18" rx="9" fill="#FF4339" stroke="#fff" stroke-width="2"/>
    <rect x="21" y="1" width="18" height="18" rx="9" fill="#FF4339" stroke="#fff" stroke-width="2"/>
    <path d="m28.111 4.827c-0.1409-0.0228-0.1469-0.02548-0.0806-0.03611 0.1271-0.02039 0.4271 0.0074 0.6339 0.0587 0.4826 0.11973 0.9218 0.42644 1.3906 0.97116l0.1245 0.14472 0.1782-0.0299c0.7506-0.12588 1.5142-0.02583 2.1529 0.28207 0.1756 0.0847 0.4527 0.25333 0.4873 0.29665 0.011 0.01381 0.0313 0.1027 0.045 0.19756 0.0474 0.32816 0.0236 0.57971-0.0725 0.76758-0.0524 0.10224-0.0553 0.13464-0.0201 0.22213 0.0281 0.06983 0.1064 0.1215 0.184 0.12139 0.1586-2.3e-4 0.3295-0.26797 0.4087-0.64053l0.0314-0.14798 0.0623 0.07363c0.3416 0.40395 0.61 0.95484 0.6561 1.347l0.0119 0.10225-0.0573-0.09295c-0.0989-0.15993-0.1982-0.26881-0.3254-0.35662-0.2292-0.15829-0.4716-0.21215-1.1134-0.24745-0.5798-0.03188-0.9079-0.08356-1.2332-0.19427-0.5535-0.18834-0.8326-0.43918-1.4901-1.3395-0.292-0.39988-0.4725-0.62112-0.6521-0.79929-0.408-0.40485-0.8089-0.61717-1.3221-0.70024z" fill="#fff"/>
    <path d="m33.128 5.7201c0.0146-0.26796 0.0493-0.4447 0.1194-0.6061 0.0277-0.06389 0.0536-0.11618 0.0577-0.11618 0.0039 0-0.0081 0.04716-0.0268 0.10479-0.0509 0.15664-0.0593 0.37089-0.0242 0.62017 0.0445 0.31628 0.0698 0.36192 0.3901 0.70357 0.1502 0.16026 0.325 0.36237 0.3883 0.44915l0.1153 0.15778-0.1153-0.11276c-0.1408-0.1379-0.4648-0.40682-0.5363-0.44526-0.048-0.02578-0.0551-0.02533-0.0847 0.00541-0.0273 0.02833-0.0331 0.07089-0.0368 0.27214-0.0059 0.31365-0.0469 0.51496-0.1457 0.71625-0.0535 0.10888-0.062 0.08564-0.0136-0.03725 0.0361-0.09175 0.0398-0.13208 0.0396-0.43571-6e-4 -0.61006-0.07-0.75673-0.477-1.008-0.1031-0.06365-0.273-0.15544-0.3775-0.20399-0.1045-0.04856-0.1876-0.09085-0.1846-0.09401 0.0116-0.01196 0.4084 0.10893 0.5683 0.17307 0.2376 0.09539 0.2768 0.10775 0.3056 0.09624 0.0194-0.00771 0.0288-0.06651 0.0382-0.23934z" fill="#fff"/>
    <path d="m28.385 6.7637c-0.286-0.41093-0.463-1.041-0.4247-1.512l0.0119-0.14575 0.0651 0.01239c0.1222 0.02327 0.333 0.10516 0.4317 0.16773 0.2709 0.17168 0.3882 0.39772 0.5075 0.97815 0.035 0.17001 0.0808 0.36241 0.1019 0.42754 0.034 0.10484 0.1623 0.34973 0.2667 0.50877 0.0751 0.11454 0.0252 0.16882-0.141 0.15317-0.2537-0.0239-0.5974-0.27145-0.8191-0.59001z" fill="#fff"/>
    <path d="m32.781 9.8223c-1.3367-0.56164-1.8074-1.0491-1.8074-1.8717 0-0.12105 4e-3 -0.22009 0.0088-0.22009 0.0049 0 0.0566 0.03995 0.115 0.08878 0.271 0.22687 0.5745 0.32378 1.4147 0.4517 0.4945 0.07529 0.7728 0.13609 1.0294 0.22492 0.8158 0.28237 1.3206 0.85538 1.441 1.6358 0.035 0.2268 0.0144 0.6521-0.0423 0.8762-0.0447 0.1771-0.1814 0.4962-0.2176 0.5085-0.0101 0.0033-0.0199-0.0369-0.0225-0.0915-0.0137-0.2931-0.1556-0.5784-0.3939-0.7921-0.271-0.243-0.635-0.4365-1.5252-0.81053z" fill="#fff"/>
    <path d="m31.843 10.055c-0.0167-0.10405-0.0457-0.23687-0.0645-0.29521l-0.0341-0.10604 0.0633 0.0742c0.0877 0.10269 0.157 0.23409 0.2157 0.40915 0.0448 0.1335 0.0498 0.1733 0.0495 0.3903-3e-4 0.2131-0.0059 0.2578-0.0473 0.378-0.0652 0.1896-0.1462 0.324-0.2821 0.4683-0.2442 0.2594-0.5581 0.403-1.0111 0.4625-0.0787 0.0103-0.3082 0.0278-0.51 0.0387-0.5085 0.0276-0.8431 0.0847-1.1438 0.1949-0.0433 0.0158-0.0819 0.0254-0.0858 0.0214-0.0122-0.0127 0.1926-0.1401 0.3617-0.2251 0.2384-0.1199 0.4758-0.1853 1.0076-0.2777 0.2627-0.0457 0.5341-0.1011 0.603-0.1231 0.6506-0.2082 0.985-0.7454 0.8779-1.4103z" fill="#fff"/>
    <path d="m32.456 11.191c-0.1776-0.3984-0.2184-0.7831-0.1211-1.1418 0.0105-0.0384 0.0272-0.06975 0.0373-0.06975 0.01 0 0.0519 0.02365 0.0931 0.05255 0.0818 0.0575 0.246 0.1543 0.6832 0.4031 0.5456 0.3105 0.8568 0.5509 1.0684 0.8255 0.1852 0.2406 0.2999 0.5146 0.3551 0.8487 0.0312 0.1891 0.0129 0.6445-0.0337 0.835-0.1466 0.6008-0.4876 1.0728-0.9739 1.3482-0.0713 0.0403-0.1352 0.0734-0.1421 0.0736-7e-3 2e-4 0.019-0.0687 0.0577-0.1531 0.1635-0.3569 0.1822-0.704 0.0585-1.0904-0.0758-0.2367-0.2302-0.5254-0.5419-1.0133-0.3626-0.5673-0.4514-0.7183-0.5406-0.9183z" fill="#fff"/>
    <path d="m27.435 13.341c0.496-0.437 1.1132-0.7475 1.6754-0.8429 0.2423-0.041 0.6459-0.0248 0.8702 0.0352 0.3597 0.096 0.6814 0.3112 0.8487 0.5675 0.1635 0.2505 0.2336 0.4688 0.3067 0.9544 0.0288 0.1917 0.0601 0.384 0.0696 0.4276 0.0548 0.2517 0.1616 0.4529 0.2938 0.554 0.2101 0.1604 0.5718 0.1703 0.9277 0.0255 0.0604-0.0246 0.1128-0.0416 0.1165-0.0377 0.0129 0.0133-0.1663 0.1385-0.2927 0.2044-0.1701 0.0887-0.3054 0.123-0.4851 0.123-0.3259 0-0.5965-0.173-0.8222-0.5258-0.0445-0.0695-0.1443-0.2774-0.222-0.4622-0.2383-0.5674-0.3561-0.7402-0.6328-0.9294-0.2409-0.1646-0.5516-0.1941-0.7852-0.0745-0.307 0.1571-0.3927 0.5664-0.1728 0.8259 0.0874 0.1031 0.2503 0.192 0.3836 0.2093 0.2493 0.0324 0.4635-0.1655 0.4635-0.4282 0-0.1705-0.0628-0.2678-0.2209-0.3423-0.216-0.1017-0.4481 0.0172-0.447 0.2289 4e-4 0.0903 0.0381 0.1469 0.1248 0.1879 0.0557 0.0263 0.057 0.0283 0.0116 0.0185-0.1982-0.0429-0.2446-0.2922-0.0853-0.4577 0.1913-0.1986 0.5869-0.111 0.7227 0.1603 0.0571 0.1139 0.0637 0.3408 0.0139 0.4777-0.1113 0.3067-0.436 0.4678-0.7653 0.3801-0.2242-0.0598-0.3155-0.1244-0.5859-0.415-0.4698-0.505-0.6521-0.6029-1.3294-0.7132l-0.1297-0.0212 0.1476-0.1301z" fill="#fff"/>
    <path d="m25.231 4.3021c1.5688 1.9871 2.6494 2.8069 2.7694 2.9801 0.0992 0.14302 0.0619 0.2716-0.108 0.37238-0.0944 0.05602-0.2886 0.11279-0.3858 0.11279-0.11 0-0.1478-0.04427-0.1478-0.04427-0.0637-0.06311-0.0996-0.05208-0.4271-0.65861-0.4545-0.73611-0.835-1.3468-0.8453-1.357-0.024-0.02364-0.0236-0.02284 0.799 1.5132 0.1329 0.32015 0.0264 0.43767 0.0264 0.48326 0 0.09276-0.0242 0.14151-0.1339 0.26915-0.1827 0.2128-0.2645 0.45191-0.3234 0.94675-0.0662 0.55473-0.2521 0.94657-0.7674 1.6172-0.3016 0.3925-0.3509 0.4645-0.4271 0.6227-0.0958 0.1993-0.1222 0.3109-0.1329 0.5625-0.0113 0.266 0.0107 0.4379 0.0886 0.6922 0.0682 0.2227 0.1394 0.3697 0.3213 0.6638 0.157 0.2538 0.2474 0.4424 0.2474 0.5162 0 0.0587 0.0108 0.0588 0.2541 0.0014 0.5822-0.1372 1.055-0.3785 1.3209-0.6743 0.1646-0.1831 0.2032-0.2841 0.2045-0.5349 8e-4 -0.1641-0.0047-0.1985-0.0472-0.2929-0.0692-0.1536-0.1952-0.2814-0.4728-0.4794-0.3637-0.2595-0.519-0.4684-0.5619-0.7557-0.0352-0.2357 0.0056-0.402 0.2068-0.8421 0.2083-0.45557 0.2599-0.64969 0.2948-1.1089 0.0226-0.29666 0.0538-0.41365 0.1355-0.50756 0.0851-0.09792 0.1618-0.13109 0.3726-0.16115 0.3437-0.04899 0.5625-0.14178 0.7424-0.31477 0.1561-0.15007 0.2214-0.29467 0.2314-0.51235l0.0076-0.16498-0.0872-0.10611c-0.3158-0.38426-3.3663-3.1408-3.3858-3.1408-0.0041 0 0.0998 0.13594 0.2309 0.30207zm0.7307 7.7212c0.0714-0.132 0.0335-0.3016-0.086-0.3845-0.1128-0.0783-0.2881-0.0414-0.2881 0.0606 0 0.0312 0.0165 0.0538 0.0537 0.0738 0.0626 0.0336 0.0671 0.0715 0.0179 0.1487-0.0499 0.0783-0.0459 0.1471 0.0113 0.1938 0.0923 0.0754 0.2228 0.0339 0.2912-0.0924z" clip-rule="evenodd" fill="#fff" fill-rule="evenodd"/>
    <path d="m28.69 8.3256c-0.1614 0.05171-0.3182 0.23016-0.3668 0.41728-0.0296 0.11415-0.0128 0.31439 0.0316 0.37623 0.0717 0.09988 0.141 0.12619 0.3286 0.12482 0.3675-0.00268 0.6869-0.16713 0.724-0.37271 0.0305-0.16853-0.1098-0.40208-0.3031-0.50462-0.0997-0.05288-0.3117-0.07386-0.4143-0.041zm0.4295 0.35051c0.0567-0.08403 0.0319-0.17483-0.0645-0.23624-0.1835-0.11695-0.461-0.02017-0.461 0.16075 0 0.09006 0.1447 0.18832 0.2773 0.18832 0.0883 0 0.2092-0.05495 0.2482-0.11283z" clip-rule="evenodd" fill="#fff" fill-rule="evenodd"/>
    <path d="m26.857 33.23v0.77h-3.612v-0.609l1.946-1.848c0.2193-0.21 0.3663-0.392 0.441-0.546 0.0793-0.1587 0.119-0.315 0.119-0.469 0-0.2287-0.077-0.4037-0.231-0.525s-0.3803-0.182-0.679-0.182c-0.4993 0-0.882 0.1703-1.148 0.511l-0.637-0.49c0.1913-0.2567 0.448-0.455 0.77-0.595 0.3267-0.1447 0.6907-0.217 1.092-0.217 0.532 0 0.9567 0.126 1.274 0.378s0.476 0.595 0.476 1.029c0 0.266-0.056 0.5157-0.168 0.749s-0.3267 0.4993-0.644 0.798l-1.309 1.246h2.31zm1.1396 0.819c-0.1587 0-0.294-0.0537-0.406-0.161-0.112-0.112-0.168-0.252-0.168-0.42 0-0.1727 0.0536-0.3127 0.161-0.42 0.112-0.1073 0.2496-0.161 0.413-0.161 0.1633 0 0.2986 0.0537 0.406 0.161 0.112 0.1073 0.168 0.2473 0.168 0.42 0 0.168-0.056 0.308-0.168 0.42-0.112 0.1073-0.2474 0.161-0.406 0.161zm2.696-3.052c0.6906 0 1.2016 0.1353 1.533 0.406 0.3313 0.266 0.497 0.63 0.497 1.092 0 0.294-0.0724 0.56-0.217 0.798-0.1447 0.238-0.3617 0.427-0.651 0.567-0.2894 0.14-0.6464 0.21-1.071 0.21-0.35 0-0.6884-0.049-1.015-0.147-0.3267-0.1027-0.602-0.2427-0.826-0.42l0.385-0.707c0.182 0.1493 0.399 0.2683 0.651 0.357 0.2566 0.084 0.5203 0.126 0.791 0.126 0.322 0 0.574-0.0653 0.756-0.196 0.1866-0.1353 0.28-0.3197 0.28-0.553 0-0.252-0.1004-0.441-0.301-0.567-0.196-0.1307-0.5344-0.196-1.015-0.196h-1.183l0.252-2.667h2.877v0.763h-2.107l-0.105 1.134h0.469zm5.1325 3.003-0.959-1.295-0.966 1.295h-0.966l1.456-1.897-1.393-1.841h0.973l0.917 1.225 0.917-1.225h0.945l-1.4 1.827 1.463 1.911h-0.987z" fill="#fff"/>
</svg>

<svg width="40" height="42" viewBox="0 0 40 42" fill="none" xmlns="http://www.w3.org/2000/svg">
    <rect y="6" width="32" height="32" rx="16" fill="#FF4339"/>
    <path d="M15.5303 21.3364H15.4394C14.2882 21.3364 13.3491 22.3058 13.3491 23.4873V25.8199L15.5 24.2143L17.6508 25.8199V23.4873C17.6206 22.3058 16.6814 21.3364 15.5303 21.3364Z"
          fill="white"/>
    <path d="M6.44214 13.46V31.0001L11.8647 26.9407V22.3058L10.865 21.5181L15.5 18.0343L20.1046 21.5181L19.1049 22.3058V26.9407L24.5578 31.0001V13.46H6.44214Z"
          fill="white"/>
    <rect x="21" y="23" width="18" height="18" rx="9" fill="#FF4339" stroke="white" stroke-width="2"/>
    <rect x="21" y="1" width="18" height="18" rx="9" fill="#FF4339" stroke="white" stroke-width="2"/>
    <path d="M28.1107 4.82702C27.9698 4.80422 27.9638 4.80154 28.0301 4.79091C28.1572 4.77052 28.4572 4.79831 28.664 4.84961C29.1466 4.96934 29.5858 5.27605 30.0546 5.82077L30.1791 5.96549L30.3573 5.93559C31.1079 5.80971 31.8715 5.90976 32.5102 6.21766C32.6858 6.30236 32.9629 6.47099 32.9975 6.51431C33.0085 6.52812 33.0288 6.61701 33.0425 6.71187C33.0899 7.04003 33.0661 7.29158 32.97 7.47945C32.9176 7.58169 32.9147 7.61409 32.9499 7.70158C32.978 7.77141 33.0563 7.82308 33.1339 7.82297C33.2925 7.82274 33.4634 7.555 33.5426 7.18244L33.574 7.03446L33.6363 7.10809C33.9779 7.51204 34.2463 8.06293 34.2924 8.45505L34.3043 8.5573L34.247 8.46435C34.1481 8.30442 34.0488 8.19554 33.9216 8.10773C33.6924 7.94944 33.45 7.89558 32.8082 7.86028C32.2284 7.8284 31.9003 7.77672 31.575 7.66601C31.0215 7.47767 30.7424 7.22683 30.0849 6.32655C29.7929 5.92667 29.6124 5.70543 29.4328 5.52726C29.0248 5.12241 28.6239 4.91009 28.1107 4.82702Z"
          fill="white"/>
    <path d="M33.1282 5.72008C33.1428 5.45212 33.1775 5.27538 33.2476 5.11398C33.2753 5.05009 33.3012 4.9978 33.3053 4.9978C33.3092 4.9978 33.2972 5.04496 33.2785 5.10259C33.2276 5.25923 33.2192 5.47348 33.2543 5.72276C33.2988 6.03904 33.3241 6.08468 33.6444 6.42633C33.7946 6.58659 33.9694 6.7887 34.0327 6.87548L34.148 7.03326L34.0327 6.9205C33.8919 6.7826 33.5679 6.51368 33.4964 6.47524C33.4484 6.44946 33.4413 6.44991 33.4117 6.48065C33.3844 6.50898 33.3786 6.55154 33.3749 6.75279C33.369 7.06644 33.328 7.26775 33.2292 7.46904C33.1757 7.57792 33.1672 7.55468 33.2156 7.43179C33.2517 7.34004 33.2554 7.29971 33.2552 6.99608C33.2546 6.38602 33.1852 6.23935 32.7782 5.98811C32.6751 5.92446 32.5052 5.83267 32.4007 5.78412C32.2962 5.73556 32.2131 5.69327 32.2161 5.69011C32.2277 5.67815 32.6245 5.79904 32.7844 5.86318C33.022 5.95857 33.0612 5.97093 33.09 5.95942C33.1094 5.95171 33.1188 5.89291 33.1282 5.72008Z"
          fill="white"/>
    <path d="M28.3847 6.7637C28.0987 6.35277 27.9217 5.72271 27.96 5.25171L27.9719 5.10596L28.037 5.11835C28.1592 5.14162 28.37 5.22351 28.4687 5.28608C28.7396 5.45776 28.8569 5.6838 28.9762 6.26423C29.0112 6.43424 29.057 6.62664 29.0781 6.69177C29.1121 6.79661 29.2404 7.0415 29.3448 7.20054C29.4199 7.31508 29.37 7.36936 29.2038 7.35371C28.9501 7.32981 28.6064 7.08226 28.3847 6.7637Z"
          fill="white"/>
    <path d="M32.7813 9.82227C31.4446 9.26063 30.9739 8.77313 30.9739 7.95056C30.9739 7.82951 30.9779 7.73047 30.9827 7.73047C30.9876 7.73047 31.0393 7.77042 31.0977 7.81925C31.3687 8.04612 31.6722 8.14303 32.5124 8.27095C33.0069 8.34624 33.2852 8.40704 33.5418 8.49587C34.3576 8.77824 34.8624 9.35125 34.9828 10.1317C35.0178 10.3585 34.9972 10.7838 34.9405 11.0079C34.8958 11.185 34.7591 11.5041 34.7229 11.5164C34.7128 11.5197 34.703 11.4795 34.7004 11.4249C34.6867 11.1318 34.5448 10.8465 34.3065 10.6328C34.0355 10.3898 33.6715 10.1963 32.7813 9.82227Z"
          fill="white"/>
    <path d="M31.8429 10.0553C31.8262 9.95125 31.7972 9.81843 31.7784 9.76009L31.7443 9.65405L31.8076 9.72825C31.8953 9.83094 31.9646 9.96234 32.0233 10.1374C32.0681 10.2709 32.0731 10.3107 32.0728 10.5277C32.0725 10.7408 32.0669 10.7855 32.0255 10.9057C31.9603 11.0953 31.8793 11.2297 31.7434 11.374C31.4992 11.6334 31.1853 11.777 30.7323 11.8365C30.6536 11.8468 30.4241 11.8643 30.2223 11.8752C29.7138 11.9028 29.3792 11.9599 29.0785 12.0701C29.0352 12.0859 28.9966 12.0955 28.9927 12.0915C28.9805 12.0788 29.1853 11.9514 29.3544 11.8664C29.5928 11.7465 29.8302 11.6811 30.362 11.5887C30.6247 11.543 30.8961 11.4876 30.965 11.4656C31.6156 11.2574 31.95 10.7202 31.8429 10.0553Z"
          fill="white"/>
    <path d="M32.4555 11.1908C32.2779 10.7924 32.2371 10.4077 32.3344 10.049C32.3449 10.0106 32.3616 9.97925 32.3717 9.97925C32.3817 9.97925 32.4236 10.0029 32.4648 10.0318C32.5466 10.0893 32.7108 10.1861 33.148 10.4349C33.6936 10.7454 34.0048 10.9858 34.2164 11.2604C34.4016 11.501 34.5163 11.775 34.5715 12.1091C34.6027 12.2982 34.5844 12.7536 34.5378 12.9441C34.3912 13.5449 34.0502 14.0169 33.5639 14.2923C33.4926 14.3326 33.4287 14.3657 33.4218 14.3659C33.4148 14.3661 33.4408 14.2972 33.4795 14.2128C33.643 13.8559 33.6617 13.5088 33.538 13.1224C33.4622 12.8857 33.3078 12.597 32.9961 12.1091C32.6335 11.5418 32.5447 11.3908 32.4555 11.1908Z"
          fill="white"/>
    <path d="M27.435 13.3407C27.931 12.9037 28.5482 12.5932 29.1104 12.4978C29.3527 12.4568 29.7563 12.473 29.9806 12.533C30.3403 12.629 30.662 12.8442 30.8293 13.1005C30.9928 13.351 31.0629 13.5693 31.136 14.0549C31.1648 14.2466 31.1961 14.4389 31.2056 14.4825C31.2604 14.7342 31.3672 14.9354 31.4994 15.0365C31.7095 15.1969 32.0712 15.2068 32.4271 15.062C32.4875 15.0374 32.5399 15.0204 32.5436 15.0243C32.5565 15.0376 32.3773 15.1628 32.2509 15.2287C32.0808 15.3174 31.9455 15.3517 31.7658 15.3517C31.4399 15.3517 31.1693 15.1787 30.9436 14.8259C30.8991 14.7564 30.7993 14.5485 30.7216 14.3637C30.4833 13.7963 30.3655 13.6235 30.0888 13.4343C29.8479 13.2697 29.5372 13.2402 29.3036 13.3598C28.9966 13.5169 28.9109 13.9262 29.1308 14.1857C29.2182 14.2888 29.3811 14.3777 29.5144 14.395C29.7637 14.4274 29.9779 14.2295 29.9779 13.9668C29.9779 13.7963 29.9151 13.699 29.757 13.6245C29.541 13.5228 29.3089 13.6417 29.31 13.8534C29.3104 13.9437 29.3481 14.0003 29.4348 14.0413C29.4905 14.0676 29.4918 14.0696 29.4464 14.0598C29.2482 14.0169 29.2018 13.7676 29.3611 13.6021C29.5524 13.4035 29.948 13.4911 30.0838 13.7624C30.1409 13.8763 30.1475 14.1032 30.0977 14.2401C29.9864 14.5468 29.6617 14.7079 29.3324 14.6202C29.1082 14.5604 29.0169 14.4958 28.7465 14.2052C28.2767 13.7002 28.0944 13.6023 27.4171 13.492L27.2874 13.4708L27.435 13.3407Z"
          fill="white"/>
    <path fill-rule="evenodd" clip-rule="evenodd"
          d="M25.231 4.30207C26.7998 6.28915 27.8804 7.10899 28.0004 7.28219C28.0996 7.42521 28.0623 7.55379 27.8924 7.65457C27.798 7.71059 27.6038 7.76736 27.5066 7.76736C27.3966 7.76736 27.3588 7.72309 27.3588 7.72309C27.2951 7.65998 27.2592 7.67101 26.9317 7.06448C26.4772 6.32837 26.0967 5.71773 26.0864 5.7075C26.0624 5.68386 26.0628 5.68466 26.8854 7.22069C27.0183 7.54084 26.9118 7.65836 26.9118 7.70395C26.9118 7.79671 26.8876 7.84546 26.7779 7.9731C26.5952 8.1859 26.5134 8.42501 26.4545 8.91985C26.3883 9.47458 26.2024 9.86642 25.6871 10.5371C25.3855 10.9296 25.3362 11.0016 25.26 11.1598C25.1642 11.3591 25.1378 11.4707 25.1271 11.7223C25.1158 11.9883 25.1378 12.1602 25.2157 12.4145C25.2839 12.6372 25.3551 12.7842 25.537 13.0783C25.694 13.3321 25.7844 13.5207 25.7844 13.5945C25.7844 13.6532 25.7952 13.6533 26.0385 13.5959C26.6207 13.4587 27.0935 13.2174 27.3594 12.9216C27.524 12.7385 27.5626 12.6375 27.5639 12.3867C27.5647 12.2226 27.5592 12.1882 27.5167 12.0938C27.4475 11.9402 27.3215 11.8124 27.0439 11.6144C26.6802 11.3549 26.5249 11.146 26.482 10.8587C26.4468 10.623 26.4876 10.4567 26.6888 10.0166C26.8971 9.56103 26.9487 9.36691 26.9836 8.90773C27.0062 8.61107 27.0374 8.49408 27.1191 8.40017C27.2042 8.30225 27.2809 8.26908 27.4917 8.23902C27.8354 8.19003 28.0542 8.09724 28.2341 7.92425C28.3902 7.77418 28.4555 7.62958 28.4655 7.4119L28.4731 7.24692L28.3859 7.14081C28.0701 6.75655 25.0196 4 25.0001 4C24.996 4 25.0999 4.13594 25.231 4.30207ZM25.9617 12.0233C26.0331 11.8913 25.9952 11.7217 25.8757 11.6388C25.7629 11.5605 25.5876 11.5974 25.5876 11.6994C25.5876 11.7306 25.6041 11.7532 25.6413 11.7732C25.7039 11.8068 25.7084 11.8447 25.6592 11.9219C25.6093 12.0002 25.6133 12.069 25.6705 12.1157C25.7628 12.1911 25.8933 12.1496 25.9617 12.0233Z"
          fill="white"/>
    <path fill-rule="evenodd" clip-rule="evenodd"
          d="M28.6902 8.32555C28.5288 8.37726 28.372 8.55571 28.3234 8.74283C28.2938 8.85698 28.3106 9.05722 28.355 9.11906C28.4267 9.21894 28.496 9.24525 28.6836 9.24388C29.0511 9.2412 29.3705 9.07675 29.4076 8.87117C29.4381 8.70264 29.2978 8.46909 29.1045 8.36655C29.0048 8.31367 28.7928 8.29269 28.6902 8.32555ZM29.1197 8.67606C29.1764 8.59203 29.1516 8.50123 29.0552 8.43982C28.8717 8.32287 28.5942 8.41965 28.5942 8.60057C28.5942 8.69063 28.7389 8.78889 28.8715 8.78889C28.9598 8.78889 29.0807 8.73394 29.1197 8.67606Z"
          fill="white"/>
    <path d="M26.857 33.23V34H23.245V33.391L25.191 31.543C25.4103 31.333 25.5573 31.151 25.632 30.997C25.7113 30.8383 25.751 30.682 25.751 30.528C25.751 30.2993 25.674 30.1243 25.52 30.003C25.366 29.8817 25.1397 29.821 24.841 29.821C24.3417 29.821 23.959 29.9913 23.693 30.332L23.056 29.842C23.2473 29.5853 23.504 29.387 23.826 29.247C24.1527 29.1023 24.5167 29.03 24.918 29.03C25.45 29.03 25.8747 29.156 26.192 29.408C26.5093 29.66 26.668 30.003 26.668 30.437C26.668 30.703 26.612 30.9527 26.5 31.186C26.388 31.4193 26.1733 31.6853 25.856 31.984L24.547 33.23H26.857ZM27.9966 34.049C27.8379 34.049 27.7026 33.9953 27.5906 33.888C27.4786 33.776 27.4226 33.636 27.4226 33.468C27.4226 33.2953 27.4762 33.1553 27.5836 33.048C27.6956 32.9407 27.8332 32.887 27.9966 32.887C28.1599 32.887 28.2952 32.9407 28.4026 33.048C28.5146 33.1553 28.5706 33.2953 28.5706 33.468C28.5706 33.636 28.5146 33.776 28.4026 33.888C28.2906 33.9953 28.1552 34.049 27.9966 34.049ZM30.6926 30.997C31.3832 30.997 31.8942 31.1323 32.2256 31.403C32.5569 31.669 32.7226 32.033 32.7226 32.495C32.7226 32.789 32.6502 33.055 32.5056 33.293C32.3609 33.531 32.1439 33.72 31.8546 33.86C31.5652 34 31.2082 34.07 30.7836 34.07C30.4336 34.07 30.0952 34.021 29.7686 33.923C29.4419 33.8203 29.1666 33.6803 28.9426 33.503L29.3276 32.796C29.5096 32.9453 29.7266 33.0643 29.9786 33.153C30.2352 33.237 30.4989 33.279 30.7696 33.279C31.0916 33.279 31.3436 33.2137 31.5256 33.083C31.7122 32.9477 31.8056 32.7633 31.8056 32.53C31.8056 32.278 31.7052 32.089 31.5046 31.963C31.3086 31.8323 30.9702 31.767 30.4896 31.767H29.3066L29.5586 29.1H32.4356V29.863H30.3286L30.2236 30.997H30.6926ZM35.8251 34L34.8661 32.705L33.9001 34H32.9341L34.3901 32.103L32.9971 30.262H33.9701L34.8871 31.487L35.8041 30.262H36.7491L35.3491 32.089L36.8121 34H35.8251Z"
          fill="white"/>
</svg>
